X:1
T:Aynhoe, SM
T:Aynhoe, SM
T:James Nares (1715-1783)
T:Public Domain Courtesy of the Cyber Hymnal™
C:James Nares (1715-1783)
Z:Public Domain
Z:Courtesy of the Cyber Hymnal™
%%score ( 1 2 ) 3
L:1/8
Q:1/4=115
M:4/4
K:A
V:1 treble 
V:2 treble 
V:3 bass 
V:1
 [CA]2 | [CA]2 [DF]2 E2 [DG]2 | [CA]6 [EB]2 | [FB]2 [EG]2 [EA]2 [^DF]2 | [B,E]6 E2 | %5
 [EA]2 [EB]2 [Ec]2 [FA]2 | [Ed]2 [Ec]2 [EB]2 [Ec]2 | [DF]2 [EA]2 [DA]2 [DG]2 | [CA]6 |] %9
V:2
 x2 | x4 E2 x2 | x8 | x8 | x6 E2 | x8 | x8 | x8 | x6 |] %9
V:3
 [A,,E,]2 | [A,,A,]2 [D,A,]2 [C,A,]2 [B,,E,]2 | [A,,E,]6 [E,G,]2 | %3
 [^D,B,]2 [E,B,]2 [A,,C]2 [B,,B,]2 | [E,G,]6 [E,G,]2 | [C,A,]2 [B,,G,]2 [A,,A,]2 [D,A,]2 | %6
 [B,,G,]2 [C,A,]2 [E,G,]2 [A,,A,]2 | [D,A,]2 [C,E,]2 [B,,F,]2 [B,,E,]2 | [A,,E,]6 |] %9

